static/logos/digitalocean-wordmark-color.svg

<svg width="100" height="17" viewBox="0 0 100 17" fill="none" xmlns="http://www.w3.org/2000/svg">
<g clip-path="url(#clip0_1_3040)">
<path fill-rule="evenodd" clip-rule="evenodd" d="M8.42822 16.7539V13.5097C11.8916 13.5097 14.5542 10.1064 13.2329 6.48403C12.7524 5.15055 11.6714 4.0758 10.3301 3.59813C6.68654 2.28454 3.26318 4.95152 3.26318 8.37482H0C0 2.90153 5.32518 -1.37759 11.0908 0.413671C13.6132 1.18988 15.6152 3.20007 16.416 5.70785C18.2177 11.4597 13.9336 16.7539 8.42822 16.7539Z" fill="#0069FF"/>
<path fill-rule="evenodd" clip-rule="evenodd" d="M8.43067 13.5296H5.1875V10.3053H8.43067V13.5296Z" fill="#0069FF"/>
<path fill-rule="evenodd" clip-rule="evenodd" d="M5.18213 16.0175H2.67969V13.5297H5.18213V16.0175Z" fill="#0069FF"/>
<path fill-rule="evenodd" clip-rule="evenodd" d="M2.68017 13.5297H0.578125V11.4598H2.66015V13.5297H2.68017Z" fill="#0069FF"/>
<path fill-rule="evenodd" clip-rule="evenodd" d="M29.9736 4.87186C29.0127 4.21506 27.8115 3.87671 26.4102 3.87671H23.3672V13.5097H26.4102C27.8115 13.5097 29.0127 13.1515 29.9736 12.4549C30.4941 12.0767 30.9146 11.5592 31.1948 10.9024C31.4751 10.2456 31.6353 9.48931 31.6353 8.63349C31.6353 7.77768 31.4951 7.02135 31.1948 6.38449C30.9146 5.72768 30.5141 5.2102 29.9736 4.87186ZM25.1498 5.48889H26.1107C27.1718 5.48889 28.0527 5.68794 28.7133 6.1059C29.454 6.54376 29.8344 7.39957 29.8344 8.61365C29.8344 9.86753 29.454 10.7433 28.7133 11.2209C28.0727 11.6389 27.2118 11.8578 26.1308 11.8578H25.1699V5.48889H25.1498Z" fill="#0069FF"/>
<path fill-rule="evenodd" clip-rule="evenodd" d="M33.772 3.73743C33.4717 3.73743 33.2315 3.83694 33.0313 4.03597C32.8311 4.235 32.7109 4.47383 32.7109 4.77237C32.7109 5.07092 32.811 5.30977 33.0113 5.52867C33.2115 5.72773 33.4717 5.8272 33.772 5.8272C34.0723 5.8272 34.3125 5.72773 34.5327 5.52867C34.7329 5.32966 34.833 5.07092 34.833 4.77237C34.833 4.47383 34.7329 4.235 34.5327 4.03597C34.3125 3.85684 34.0522 3.73743 33.772 3.73743Z" fill="#0069FF"/>
<path d="M34.6123 6.70288H32.8906V13.4897H34.6123V6.70288Z" fill="#0069FF"/>
<path fill-rule="evenodd" clip-rule="evenodd" d="M40.8364 7.28009C40.316 6.82234 39.7354 6.5636 39.1148 6.5636C38.1739 6.5636 37.3731 6.88203 36.7725 7.53883C36.1519 8.17575 35.8516 8.99171 35.8516 9.967C35.8516 10.9223 36.1519 11.7383 36.7525 12.3951C37.353 13.032 38.1538 13.3505 39.0948 13.3505C39.7554 13.3505 40.316 13.1713 40.7964 12.8131V12.9723C40.7964 13.5296 40.6363 13.9675 40.356 14.266C40.0557 14.5645 39.6353 14.7238 39.1348 14.7238C38.334 14.7238 37.8536 14.4053 37.2329 13.6092L36.0718 14.7238L36.1118 14.7635C36.3721 15.1218 36.7525 15.4602 37.253 15.7786C37.7534 16.0971 38.4141 16.2762 39.1548 16.2762C40.1758 16.2762 40.9966 15.9577 41.5972 15.3408C42.1978 14.7238 42.5181 13.8878 42.5181 12.8728V6.70292H40.8364V7.28009ZM40.3764 11.2806C40.0761 11.619 39.6957 11.7782 39.1953 11.7782C38.6948 11.7782 38.3144 11.619 38.0341 11.2806C37.7338 10.9423 37.5937 10.5044 37.5937 9.94716C37.5937 9.38983 37.7338 8.95198 38.0341 8.61365C38.3344 8.27527 38.7148 8.11606 39.1953 8.11606C39.6957 8.11606 40.0761 8.27527 40.3764 8.61365C40.6767 8.95198 40.8169 9.40978 40.8169 9.94716C40.8369 10.5044 40.6767 10.9423 40.3764 11.2806Z" fill="#0069FF"/>
<path d="M45.706 6.70288H43.9844V13.4897H45.706V6.70288Z" fill="#0069FF"/>
<path fill-rule="evenodd" clip-rule="evenodd" d="M44.8657 3.73743C44.5655 3.73743 44.3252 3.83694 44.125 4.03597C43.9248 4.235 43.8047 4.47383 43.8047 4.77237C43.8047 5.07092 43.9048 5.30977 44.105 5.52867C44.3052 5.72773 44.5655 5.8272 44.8657 5.8272C45.166 5.8272 45.4063 5.72773 45.6265 5.52867C45.8267 5.32966 45.9268 5.07092 45.9268 4.77237C45.9268 4.47383 45.8267 4.235 45.6265 4.03597C45.4063 3.85684 45.166 3.73743 44.8657 3.73743Z" fill="#0069FF"/>
<path fill-rule="evenodd" clip-rule="evenodd" d="M49.4673 4.87183H47.7856V6.70288H46.8047V8.25529H47.7856V11.0616C47.7856 11.9373 47.9658 12.5742 48.3062 12.9325C48.6665 13.2907 49.2871 13.4897 50.1479 13.4897C50.4282 13.4897 50.7085 13.4897 50.9888 13.4698H51.0689V11.9174L50.4883 11.9572C50.0879 11.9572 49.8076 11.8776 49.6675 11.7383C49.5274 11.599 49.4673 11.3005 49.4673 10.8427V8.27524H51.0689V6.72278H49.4673V4.87183Z" fill="#0069FF"/>
<path fill-rule="evenodd" clip-rule="evenodd" d="M59.1172 3.85681H60.8387V13.4898H59.1172V3.85681Z" fill="#0069FF"/>
<path fill-rule="evenodd" clip-rule="evenodd" d="M78.1584 11.0617C77.8578 11.4 77.5374 11.6985 77.2971 11.8577C77.0573 12.0169 76.7568 12.0767 76.4165 12.0767C75.9159 12.0767 75.4955 11.8976 75.1751 11.5194C74.8547 11.1412 74.6746 10.6636 74.6746 10.0864C74.6746 9.5092 74.8348 9.03156 75.1552 8.65339C75.4756 8.27522 75.8961 8.09611 76.3966 8.09611C76.9568 8.09611 77.5374 8.43444 78.0379 9.03156L79.1793 7.95679C78.4385 7.00145 77.4976 6.5636 76.3762 6.5636C75.4353 6.5636 74.6149 6.90192 73.9542 7.57862C73.2934 8.25533 72.9531 9.09124 72.9531 10.1063C72.9531 11.1213 73.2934 11.9772 73.9542 12.634C74.6149 13.3107 75.4353 13.649 76.3762 13.649C77.6175 13.649 78.6186 13.1116 79.2992 12.1364L78.1584 11.0617Z" fill="#0069FF"/>
<path fill-rule="evenodd" clip-rule="evenodd" d="M85.2031 7.65826C84.9627 7.31993 84.6224 7.04129 84.2219 6.84229C83.8214 6.64323 83.3407 6.5437 82.8004 6.5437C81.8397 6.5437 81.0586 6.90197 80.4784 7.57868C79.8978 8.27527 79.6172 9.13108 79.6172 10.1262C79.6172 11.1612 79.9376 11.9971 80.558 12.6539C81.179 13.2908 82.0198 13.6291 83.0407 13.6291C84.202 13.6291 85.1428 13.1714 85.8633 12.2558L85.9036 12.2161L84.7826 11.1413C84.6821 11.2607 84.5219 11.4 84.402 11.5394C84.2418 11.6986 84.0816 11.818 83.9015 11.8976C83.6413 12.017 83.3612 12.0966 83.0407 12.0966C82.5601 12.0966 82.18 11.9573 81.8795 11.6787C81.5994 11.4199 81.4392 11.0816 81.3989 10.6437H85.9434L85.9638 10.0267C85.9638 9.58888 85.9036 9.17087 85.7832 8.77286C85.6235 8.35491 85.4428 7.99663 85.2031 7.65826ZM81.4596 9.25056C81.5397 8.93213 81.6994 8.65349 81.8999 8.45443C82.1402 8.23553 82.4402 8.11611 82.801 8.11611C83.2214 8.11611 83.5413 8.23553 83.7617 8.47438C83.9617 8.69328 84.0821 8.95203 84.102 9.27046H81.4596V9.25056Z" fill="#0069FF"/>
<path fill-rule="evenodd" clip-rule="evenodd" d="M91.7902 7.22041C91.2698 6.7825 90.5494 6.5636 89.6483 6.5636C89.0677 6.5636 88.5473 6.68302 88.0667 6.92182C87.6264 7.14077 87.186 7.51894 86.9054 8.01648L86.9258 8.03637L88.0269 9.09124C88.4871 8.37475 88.9876 8.11601 89.6483 8.11601C90.0086 8.11601 90.3091 8.21554 90.529 8.39465C90.7494 8.57376 90.8693 8.8126 90.8693 9.13103V9.46941C90.4489 9.34999 90.0285 9.27035 89.608 9.27035C88.7473 9.27035 88.0667 9.46941 87.5463 9.86747C87.0258 10.2655 86.7656 10.8427 86.7656 11.5592C86.7656 12.1961 86.9855 12.7136 87.4264 13.0917C87.8667 13.4699 88.4269 13.649 89.0876 13.649C89.7483 13.649 90.3489 13.3902 90.9096 12.9325V13.4898H92.5913V9.13103C92.5709 8.29512 92.3107 7.65826 91.7902 7.22041ZM88.7468 10.9023C88.9473 10.763 89.2075 10.7033 89.5677 10.7033C89.9881 10.7033 90.4285 10.783 90.8688 10.9422V11.599C90.4887 11.9373 89.9881 12.1164 89.3876 12.1164C89.0871 12.1164 88.8672 12.0567 88.707 11.9174C88.5468 11.798 88.4667 11.6388 88.4667 11.4198C88.4667 11.2009 88.5468 11.0218 88.7468 10.9023Z" fill="#0069FF"/>
<path fill-rule="evenodd" clip-rule="evenodd" d="M99.1767 7.33983C98.6961 6.80244 98.0353 6.5437 97.1746 6.5437C96.494 6.5437 95.9338 6.74276 95.5332 7.12093V6.70297H93.8516V13.4898H95.573V9.7481C95.573 9.23061 95.6934 8.83255 95.9338 8.53402C96.1735 8.23548 96.5139 8.09616 96.9547 8.09616C97.3348 8.09616 97.6353 8.21559 97.8552 8.47428C98.0756 8.73302 98.1756 9.09129 98.1756 9.54904V13.4699H99.8971V9.54904C99.8971 8.6136 99.6573 7.87721 99.1767 7.33983Z" fill="#0069FF"/>
<path fill-rule="evenodd" clip-rule="evenodd" d="M56.9546 7.22041C56.4342 6.7825 55.7132 6.5636 54.8127 6.5636C54.2321 6.5636 53.7117 6.68302 53.2311 6.92182C52.7907 7.14077 52.3501 7.51894 52.0698 8.01648L52.0898 8.03637L53.1907 9.09124C53.6515 8.37475 54.152 8.11601 54.8127 8.11601C55.1729 8.11601 55.4729 8.21554 55.6934 8.39465C55.9138 8.57376 56.0337 8.8126 56.0337 9.13103V9.46941C55.6132 9.34999 55.1928 9.27035 54.7724 9.27035C53.9117 9.27035 53.231 9.46941 52.7106 9.86747C52.1899 10.2655 51.9297 10.8427 51.9297 11.5592C51.9297 12.1961 52.1499 12.7136 52.5902 13.0917C53.0305 13.4699 53.5913 13.649 54.252 13.649C54.9127 13.649 55.5132 13.3902 56.074 12.9325V13.4898H57.7551V9.13103C57.7352 8.29512 57.475 7.65826 56.9546 7.22041ZM53.9112 10.9023C54.1117 10.763 54.3719 10.7033 54.7321 10.7033C55.1525 10.7033 55.5928 10.783 56.0331 10.9422V11.599C55.653 11.9373 55.1525 12.1164 54.552 12.1164C54.2515 12.1164 54.0316 12.0567 53.8714 11.9174C53.7112 11.798 53.6311 11.6388 53.6311 11.4198C53.6311 11.2009 53.7112 11.0218 53.9112 10.9023Z" fill="#0069FF"/>
<path fill-rule="evenodd" clip-rule="evenodd" d="M67.0473 13.6291C64.3049 13.6291 62.0625 11.3999 62.0625 8.6732C62.0625 5.94655 64.3049 3.71741 67.0473 3.71741C69.7902 3.71741 72.0321 5.94655 72.0321 8.6732C72.0321 11.3999 69.8101 13.6291 67.0473 13.6291ZM67.0468 5.44906C65.2651 5.44906 63.8238 6.88205 63.8238 8.65341C63.8238 10.4248 65.2651 11.8578 67.0468 11.8578C68.8285 11.8578 70.2698 10.4248 70.2698 8.65341C70.2698 6.88205 68.8285 5.44906 67.0468 5.44906Z" fill="#0069FF"/>
</g>
<defs>
<clipPath id="clip0_1_3040">
<rect width="100" height="16.7539" fill="white"/>
</clipPath>
</defs>
</svg>

<svg xmlns="http://www.w3.org/2000/svg" width="376.471" height="64" fill="none" viewBox="0 0 100 17"><g fill="#0069FF" clip-path="url(#a)"><path fill-rule="evenodd" d="M8.428 16.754V13.51c3.464 0 6.126-3.404 4.805-7.026a4.829 4.829 0 0 0-2.903-2.886C6.687 2.285 3.263 4.952 3.263 8.375H0C0 2.902 5.325-1.378 11.09.414c2.523.776 4.525 2.786 5.326 5.294a8.407 8.407 0 0 1-7.988 11.046Z" clip-rule="evenodd"/><path fill-rule="evenodd" d="M8.43 13.53H5.189v-3.225H8.43v3.225ZM5.182 16.017H2.68V13.53h2.502v2.487ZM2.68 13.53H.578v-2.07H2.66v2.07h.02ZM29.974 4.872c-.961-.657-2.163-.995-3.564-.995h-3.043v9.633h3.043c1.401 0 2.603-.358 3.564-1.055.52-.378.94-.896 1.22-1.553.281-.656.441-1.413.441-2.269 0-.855-.14-1.612-.44-2.249-.28-.656-.68-1.174-1.221-1.512Zm-4.824.617h.96c1.062 0 1.943.199 2.603.617.741.438 1.121 1.294 1.121 2.508 0 1.254-.38 2.13-1.12 2.607-.641.418-1.502.637-2.583.637h-.961v-6.37h-.02ZM33.772 3.737c-.3 0-.54.1-.74.299-.2.199-.321.438-.321.736 0 .299.1.538.3.757.2.199.46.298.761.298.3 0 .54-.1.76-.298.2-.2.301-.458.301-.757 0-.298-.1-.537-.3-.736-.22-.18-.48-.299-.761-.299Z" clip-rule="evenodd"/><path d="M34.612 6.703h-1.721v6.787h1.721V6.703Z"/><path fill-rule="evenodd" d="M40.836 7.28c-.52-.458-1.1-.716-1.721-.716-.941 0-1.742.318-2.343.975-.62.637-.92 1.453-.92 2.428 0 .955.3 1.771.9 2.428.601.637 1.402.956 2.343.956.66 0 1.221-.18 1.701-.538v.16c0 .557-.16.994-.44 1.293-.3.299-.72.458-1.221.458-.801 0-1.281-.319-1.902-1.115l-1.161 1.115.04.04c.26.358.64.696 1.141 1.015.5.318 1.161.497 1.902.497 1.02 0 1.842-.318 2.442-.935.6-.617.921-1.453.921-2.468v-6.17h-1.682v.577Zm-.46 4c-.3.339-.68.498-1.18.498-.501 0-.882-.159-1.162-.497-.3-.339-.44-.777-.44-1.334s.14-.995.44-1.333c.3-.339.68-.498 1.161-.498.5 0 .881.16 1.181.498.3.338.44.796.44 1.333.02.557-.14.995-.44 1.334Z" clip-rule="evenodd"/><path d="M45.706 6.703h-1.722v6.787h1.722V6.703Z"/><path fill-rule="evenodd" d="M44.866 3.737c-.3 0-.54.1-.741.299-.2.199-.32.438-.32.736 0 .299.1.538.3.757.2.199.46.298.76.298.301 0 .541-.1.761-.298.2-.2.3-.458.3-.757 0-.298-.1-.537-.3-.736-.22-.18-.46-.299-.76-.299ZM49.467 4.872h-1.681v1.83h-.981v1.553h.98v2.807c0 .875.18 1.512.521 1.87.36.359.981.558 1.842.558.28 0 .56 0 .84-.02h.08v-1.553l-.58.04c-.4 0-.68-.08-.82-.219-.14-.139-.2-.438-.2-.895V8.275h1.6V6.723h-1.6V4.872ZM59.117 3.857h1.722v9.633h-1.722V3.857ZM78.158 11.062c-.3.338-.62.636-.86.796-.24.159-.541.219-.882.219-.5 0-.92-.18-1.24-.558-.321-.378-.501-.855-.501-1.433 0-.577.16-1.054.48-1.433.32-.378.741-.557 1.242-.557.56 0 1.14.338 1.64.936l1.142-1.075c-.74-.956-1.681-1.393-2.803-1.393-.94 0-1.761.338-2.422 1.015-.66.676-1 1.512-1 2.527 0 1.015.34 1.871 1 2.528a3.276 3.276 0 0 0 2.422 1.015c1.242 0 2.243-.537 2.923-1.513l-1.14-1.074ZM85.203 7.658a2.63 2.63 0 0 0-.981-.816c-.4-.199-.881-.298-1.422-.298-.96 0-1.741.358-2.322 1.035-.58.696-.86 1.552-.86 2.547 0 1.035.32 1.871.94 2.528.621.637 1.462.975 2.483.975 1.161 0 2.102-.458 2.822-1.373l.04-.04-1.12-1.075c-.1.12-.261.259-.381.398-.16.16-.32.279-.5.359-.26.119-.54.199-.861.199-.48 0-.861-.14-1.162-.418-.28-.26-.44-.597-.48-1.035h4.544l.02-.617c0-.438-.06-.856-.18-1.254a4.905 4.905 0 0 0-.58-1.115ZM81.46 9.251c.08-.319.24-.598.44-.797.24-.218.54-.338.901-.338.42 0 .74.12.96.358.2.22.321.478.341.796H81.46v-.02ZM91.79 7.22c-.52-.438-1.24-.656-2.142-.656-.58 0-1.1.119-1.581.358-.44.219-.881.597-1.162 1.094l.02.02 1.102 1.055c.46-.716.96-.975 1.621-.975.36 0 .661.1.881.279.22.179.34.418.34.736v.338c-.42-.119-.84-.199-1.261-.199-.86 0-1.541.2-2.062.597-.52.398-.78.976-.78 1.692 0 .637.22 1.155.66 1.533.44.378 1 .557 1.662.557.66 0 1.26-.259 1.822-.716v.557h1.681V9.13c-.02-.836-.28-1.473-.8-1.91Zm-3.043 3.682c.2-.139.46-.199.82-.199.421 0 .862.08 1.302.24v.656c-.38.338-.88.517-1.481.517-.3 0-.52-.06-.681-.199a.577.577 0 0 1-.24-.497c0-.22.08-.398.28-.518ZM99.177 7.34c-.48-.538-1.142-.796-2.002-.796-.681 0-1.241.199-1.642.577v-.418h-1.681v6.787h1.721V9.748c0-.517.12-.915.36-1.214.24-.299.58-.438 1.022-.438.38 0 .68.12.9.378.22.259.32.617.32 1.075v3.92h1.722V9.55c0-.935-.24-1.672-.72-2.21ZM56.955 7.22c-.52-.438-1.242-.656-2.142-.656-.58 0-1.101.119-1.582.358-.44.219-.88.597-1.161 1.094l.02.02 1.1 1.055c.462-.716.962-.975 1.623-.975.36 0 .66.1.88.279.22.179.34.418.34.736v.338c-.42-.119-.84-.199-1.26-.199-.861 0-1.542.2-2.062.597-.521.398-.781.976-.781 1.692 0 .637.22 1.155.66 1.533.44.378 1.001.557 1.662.557.66 0 1.261-.259 1.822-.716v.557h1.681V9.13c-.02-.836-.28-1.473-.8-1.91Zm-3.044 3.682c.2-.139.46-.199.821-.199.42 0 .86.08 1.301.24v.656c-.38.338-.88.517-1.481.517-.3 0-.52-.06-.68-.199a.577.577 0 0 1-.24-.497c0-.22.08-.398.28-.518ZM67.047 13.63c-2.742 0-4.984-2.23-4.984-4.957 0-2.726 2.242-4.956 4.984-4.956 2.743 0 4.985 2.23 4.985 4.956 0 2.727-2.222 4.956-4.985 4.956Zm0-8.18a3.212 3.212 0 0 0-3.223 3.203 3.212 3.212 0 0 0 3.223 3.205 3.212 3.212 0 0 0 3.223-3.205 3.212 3.212 0 0 0-3.223-3.204Z" clip-rule="evenodd"/></g><defs><clipPath id="a"><path fill="#fff" d="M0 0h100v16.754H0z"/></clipPath></defs></svg>
